public/assets/img/icons/recruit-value-up.svg

<svg width="38" height="38" viewBox="0 0 38 38" fill="none" xmlns="http://www.w3.org/2000/svg">
<path d="M16.1806 20.507C16.1806 19.2941 15.2176 18.311 14.0294 18.311H11.7938C10.6056 18.311 9.64258 19.2941 9.64258 20.507V35.8039C9.64258 37.0168 10.6056 37.9999 11.7938 37.9999H14.0294C15.2176 37.9999 16.1806 37.0168 16.1806 35.8039V20.507Z" fill="white"/>
<path d="M6.53805 25.8462C6.53805 24.5413 5.50177 23.4834 4.22342 23.4834H2.31464C1.03628 23.4834 0 24.5413 0 25.8462V35.6369C0 36.9419 1.03628 37.9998 2.31464 37.9998H4.22342C5.50177 37.9998 6.53805 36.9419 6.53805 35.6369V25.8462Z" fill="white"/>
<path d="M25.6611 14.6672C25.6611 13.4543 24.698 12.4712 23.5099 12.4712H21.2742C20.0861 12.4712 19.123 13.4543 19.123 14.6672V35.804C19.123 37.0168 20.0861 37.9999 21.2742 37.9999H23.5099C24.698 37.9999 25.6611 37.0168 25.6611 35.804V14.6672Z" fill="white"/>
<path d="M37.6518 6.23803L33.458 0.746174C33.096 0.271973 32.5811 0 32.0455 0C31.5098 0 30.995 0.271973 30.6329 0.746174L26.4391 6.23786C26.0793 6.70889 25.9911 7.22597 26.197 7.65629C26.4214 8.12549 26.9602 8.40547 27.6375 8.40547L28.7678 8.40864V35.8666C28.7678 37.0774 29.7341 38 30.9203 38H33.171C34.3572 38 35.3058 37.0774 35.3058 35.8666V8.38962L36.4431 8.40564C37.1219 8.40564 37.6654 8.12549 37.8898 7.65646C38.0958 7.22597 38.0116 6.70906 37.6518 6.23803Z" fill="white"/>
</svg>

<svg width="38" height="38" fill="none" xmlns="http://www.w3.org/2000/svg"><path d="M16.18 20.507c0-1.213-.962-2.196-2.15-2.196h-2.236c-1.188 0-2.151.983-2.151 2.196v15.297c0 1.213.963 2.196 2.15 2.196h2.236c1.189 0 2.152-.983 2.152-2.196V20.507zM6.538 25.846c0-1.305-1.036-2.363-2.315-2.363H2.315C1.036 23.483 0 24.541 0 25.846v9.79C0 36.943 1.036 38 2.315 38h1.908c1.279 0 2.315-1.058 2.315-2.363v-9.79zM25.661 14.667c0-1.213-.963-2.196-2.151-2.196h-2.236c-1.188 0-2.151.983-2.151 2.196v21.137c0 1.213.963 2.196 2.151 2.196h2.236c1.188 0 2.151-.983 2.151-2.196V14.667zM37.652 6.238 33.458.746C33.096.272 32.581 0 32.045 0c-.535 0-1.05.272-1.412.746l-4.194 5.492c-.36.47-.448.988-.242 1.418.224.47.763.75 1.44.75l1.13.003v27.458c0 1.21.967 2.133 2.153 2.133h2.251a2.11 2.11 0 0 0 2.135-2.133V8.39l1.137.016c.679 0 1.222-.28 1.447-.75.206-.43.122-.947-.238-1.418z" fill="#fff"/></svg>
